_includes/icons/ios-windsock.svg

<svg fill="#666" height="50" viewBox="0 0 50 50" width="50" xmlns="http://www.w3.org/2000/svg"><path d="m3 4c-1.644531 0-3 1.355469-3 3 0 1.292969.84375 2.394531 2 2.8125v35.1875h2v-35.1875c1.15625-.417969 2-1.519531 2-2.8125 0-1.644531-1.355469-3-3-3zm6.65625 1.90625c-.550781.015625-1.128906.050781-1.71875.09375l-.9375.0625v18.59375l1.46875-.78125c5.667969-2.949219 10.730469-1.449219 17.15625-.625s14.0625.839844 23.90625-5.40625l.65625-.40625-2.25-6.75-.28125-.90625-.9375.25c-11.304687 3.160156-15.992187 1.890625-20.46875-.03125-4.195312-1.800781-8.304687-4.332031-16.59375-4.09375zm-6.65625.09375c.5625 0 1 .4375 1 1s-.4375 1-1 1-1-.4375-1-1 .4375-1 1-1zm8 1.96875c1.5.011719 2.847656.136719 4.0625.3125.125.40625.488281.71875.9375.71875.210938 0 .402344-.074219.5625-.1875l-.46875 4.21875c-.035156-.003906-.058594-.03125-.09375-.03125-.550781 0-1 .449219-1 1 0 .507813.386719.902344.875.96875l-.46875 4.25c-.242187.183594-.40625.457031-.40625.78125 0 .09375.039063.164063.0625.25-1.992187.105469-4.003906.5-6.0625 1.34375v-13.59375c0 .550781.449219 1 1 1s1-.449219 1-1c0-.011719 0-.019531 0-.03125zm-2 6.03125c0 .550781.449219 1 1 1s1-.449219 1-1-.449219-1-1-1-1 .449219-1 1zm0 6c0 .550781.449219 1 1 1s1-.449219 1-1-.449219-1-1-1-1 .449219-1 1zm9.5625-10.9375c2.554688.765625 4.640625 1.808594 6.90625 2.78125.042969.019531.082031.042969.125.0625l-1.78125 9.0625c-2.191406-.3125-4.347656-.640625-6.5-.71875zm-5.5625.9375c-.550781 0-1 .449219-1 1s.449219 1 1 1 1-.449219 1-1-.449219-1-1-1zm33.34375 2.15625.375 1.125c-.179687-.179687-.441406-.28125-.71875-.28125-.550781 0-1 .449219-1 1s.449219 1 1 1c.515625 0 .917969-.402344.96875-.90625l.8125 2.40625c-1.339844.816406-2.632812 1.503906-3.875 2.09375l-.28125-.8125c.226563-.183594.375-.464844.375-.78125 0-.550781-.449219-1-1-1-.011719 0-.019531 0-.03125 0l-1-2.84375c1.355469-.253906 2.808594-.585937 4.375-1zm-18.875.46875c1.617188.554688 3.40625.984375 5.53125 1.15625v.1875.03125c0 .023438.03125.039063.03125.0625l.3125 5.1875c-.210937.183594-.34375.449219-.34375.75 0 .339844.179688.632813.4375.8125l.03125.71875c-2.6875.21875-5.171875.027344-7.5625-.28125-.03125-.003906-.0625.003906-.09375 0l1.3125-6.8125c.164063.324219.484375.5625.875.5625.550781 0 1-.449219 1-1s-.449219-1-1-1c-.25 0-.480469.097656-.65625.25zm12.46875.84375 2.125 5.9375c-2.351562.960938-4.53125 1.554688-6.59375 1.875l-.46875-7.4375c1.476563.003906 3.113281-.117187 4.9375-.375zm-26.9375 2.53125c-.550781 0-1 .449219-1 1s.449219 1 1 1 1-.449219 1-1-.449219-1-1-1zm18 0c-.550781 0-1 .449219-1 1s.449219 1 1 1 1-.449219 1-1-.449219-1-1-1zm-3 3c-.550781 0-1 .449219-1 1s.449219 1 1 1 1-.449219 1-1-.449219-1-1-1z"/></svg>

<svg xmlns="http://www.w3.org/2000/svg" viewBox="0 0 50 50" width="50" height="50" fill="#666"><path d="M 3 4 C 1.355469 4 0 5.355469 0 7 C 0 8.292969 0.84375 9.394531 2 9.8125 L 2 45 L 4 45 L 4 9.8125 C 5.15625 9.394531 6 8.292969 6 7 C 6 5.355469 4.644531 4 3 4 Z M 9.65625 5.90625 C 9.105469 5.921875 8.527344 5.957031 7.9375 6 L 7 6.0625 L 7 24.65625 L 8.46875 23.875 C 14.136719 20.925781 19.199219 22.425781 25.625 23.25 C 32.050781 24.074219 39.6875 24.089844 49.53125 17.84375 L 50.1875 17.4375 L 47.9375 10.6875 L 47.65625 9.78125 L 46.71875 10.03125 C 35.414063 13.191406 30.726563 11.921875 26.25 10 C 22.054688 8.199219 17.945313 5.667969 9.65625 5.90625 Z M 3 6 C 3.5625 6 4 6.4375 4 7 C 4 7.5625 3.5625 8 3 8 C 2.4375 8 2 7.5625 2 7 C 2 6.4375 2.4375 6 3 6 Z M 11 7.96875 C 12.5 7.980469 13.847656 8.105469 15.0625 8.28125 C 15.1875 8.6875 15.550781 9 16 9 C 16.210938 9 16.402344 8.925781 16.5625 8.8125 L 16.09375 13.03125 C 16.058594 13.027344 16.035156 13 16 13 C 15.449219 13 15 13.449219 15 14 C 15 14.507813 15.386719 14.902344 15.875 14.96875 L 15.40625 19.21875 C 15.164063 19.402344 15 19.675781 15 20 C 15 20.09375 15.039063 20.164063 15.0625 20.25 C 13.070313 20.355469 11.058594 20.75 9 21.59375 L 9 8 C 9 8.550781 9.449219 9 10 9 C 10.550781 9 11 8.550781 11 8 C 11 7.988281 11 7.980469 11 7.96875 Z M 9 14 C 9 14.550781 9.449219 15 10 15 C 10.550781 15 11 14.550781 11 14 C 11 13.449219 10.550781 13 10 13 C 9.449219 13 9 13.449219 9 14 Z M 9 20 C 9 20.550781 9.449219 21 10 21 C 10.550781 21 11 20.550781 11 20 C 11 19.449219 10.550781 19 10 19 C 9.449219 19 9 19.449219 9 20 Z M 18.5625 9.0625 C 21.117188 9.828125 23.203125 10.871094 25.46875 11.84375 C 25.511719 11.863281 25.550781 11.886719 25.59375 11.90625 L 23.8125 20.96875 C 21.621094 20.65625 19.464844 20.328125 17.3125 20.25 Z M 13 10 C 12.449219 10 12 10.449219 12 11 C 12 11.550781 12.449219 12 13 12 C 13.550781 12 14 11.550781 14 11 C 14 10.449219 13.550781 10 13 10 Z M 46.34375 12.15625 L 46.71875 13.28125 C 46.539063 13.101563 46.277344 13 46 13 C 45.449219 13 45 13.449219 45 14 C 45 14.550781 45.449219 15 46 15 C 46.515625 15 46.917969 14.597656 46.96875 14.09375 L 47.78125 16.5 C 46.441406 17.316406 45.148438 18.003906 43.90625 18.59375 L 43.625 17.78125 C 43.851563 17.597656 44 17.316406 44 17 C 44 16.449219 43.550781 16 43 16 C 42.988281 16 42.980469 16 42.96875 16 L 41.96875 13.15625 C 43.324219 12.902344 44.777344 12.570313 46.34375 12.15625 Z M 27.46875 12.625 C 29.085938 13.179688 30.875 13.609375 33 13.78125 L 33 13.96875 C 33 13.980469 33 13.988281 33 14 C 33 14.023438 33.03125 14.039063 33.03125 14.0625 L 33.34375 19.25 C 33.132813 19.433594 33 19.699219 33 20 C 33 20.339844 33.179688 20.632813 33.4375 20.8125 L 33.46875 21.53125 C 30.78125 21.75 28.296875 21.558594 25.90625 21.25 C 25.875 21.246094 25.84375 21.253906 25.8125 21.25 L 27.125 14.4375 C 27.289063 14.761719 27.609375 15 28 15 C 28.550781 15 29 14.550781 29 14 C 29 13.449219 28.550781 13 28 13 C 27.75 13 27.519531 13.097656 27.34375 13.25 Z M 39.9375 13.46875 L 42.0625 19.40625 C 39.710938 20.367188 37.53125 20.960938 35.46875 21.28125 L 35 13.84375 C 36.476563 13.847656 38.113281 13.726563 39.9375 13.46875 Z M 13 16 C 12.449219 16 12 16.449219 12 17 C 12 17.550781 12.449219 18 13 18 C 13.550781 18 14 17.550781 14 17 C 14 16.449219 13.550781 16 13 16 Z M 31 16 C 30.449219 16 30 16.449219 30 17 C 30 17.550781 30.449219 18 31 18 C 31.550781 18 32 17.550781 32 17 C 32 16.449219 31.550781 16 31 16 Z M 28 19 C 27.449219 19 27 19.449219 27 20 C 27 20.550781 27.449219 21 28 21 C 28.550781 21 29 20.550781 29 20 C 29 19.449219 28.550781 19 28 19 Z"/></svg>
